src/parts/mouth/Grimace.svg

<svg>
  <g transform="translate(76 82)">
    <g id="Mouth/Grimace" transform="translate(2 52)">
      <defs>
        <rect id="Grimace-path1" width="60" height="22" x="24" y="9" rx="11"/>
      </defs>
      <rect id="Mouth" width="64" height="26" x="22" y="7" fill="#000" opacity=".6" rx="13"/>
      <mask id="Grimace-mask1" fill="#fff">
        <use href="#Grimace-path1"/>
      </mask>
      <use id="Mouth" fill="#FFF" href="#Grimace-path1"/>
      <path id="Grimace-Teeth" fill="#E6E6E6" d="M71 22h-9v12h-4V22h-9v12h-4V22h-9v12h-4V22h-8v-4h8V6h4v12h9V6h4v12h9V6h4v12h9V6h4v12h8.867v4H75v12h-4V22Z" mask="url('#Grimace-mask1')"/>
    </g>
  </g>
</svg>

<svg>
  <g transform="translate(76.000000, 82.000000)">
    <g
      id="Mouth/Grimace"
      transform="translate(2.000000, 52.000000)"
    >
      <defs>
        <rect
          id="Grimace-path1"
          x="24"
          y="9"
          width="60"
          height="22"
          rx="11"
        />
      </defs>
      <rect
        id="Mouth"
        opacity="0.599999964"
        fill="#000000"
        fillRule="evenodd"
        x="22"
        y="7"
        width="64"
        height="26"
        rx="13"
      />
      <mask
        id="Grimace-mask1"
        fill="white"
      >
        <use href="#Grimace-path1" />
      </mask>
      <use
        id="Mouth"
        fill="#FFFFFF"
        fillRule="evenodd"
        href="#Grimace-path1"
      />
      <path
        id="Grimace-Teeth"
        d="M71,22 L62,22 L62,34 L58,34 L58,22 L49,22 L49,34 L45,34 L45,22 L36,22 L36,34 L32,34 L32,22 L24,22 L24,18 L32,18 L32,6 L36,6 L36,18 L45,18 L45,6 L49,6 L49,18 L58,18 L58,6 L62,6 L62,18 L71,18 L71,6 L75,6 L75,18 L83.8666667,18 L83.8666667,22 L75,22 L75,34 L71,34 L71,22 Z"
        fill="#E6E6E6"
        fillRule="evenodd"
        mask="url('#Grimace-mask1')"
      />
    </g>
  </g>
</svg>
